icons/brand/icon_bank-psb_xl_white.svg

<svg xmlns="http://www.w3.org/2000/svg" width="32" height="32" viewBox="0 0 32 32"><g fill="#FFF"><path d="M0 26c0 3.3 2.7 6 6 6h14c3.3 0 6-2.7 6-6H12c-3.3 0-6-2.7-6-6V6c-3.3 0-6 2.7-6 6v14z" opacity=".3"/><path d="M24.203 14.081a2.492 2.492 0 0 0-2.027-1.926c.608-.203 1.318-.709 1.318-2.027C23.494 8.709 22.379 8 20.656 8h-2.838v3.446h-1.723c-2.23 0-2.737 1.52-2.737 2.331 0 1.216.709 1.723 1.926 2.331.811.304 1.723.709 1.723 1.419 0 .405-.405 1.013-1.318 1.013H14.27c.203-.405.304-.912.304-1.318 0-.608-.203-2.736-3.243-2.736H9V23h1.723v-3.75l.709.709h4.561c2.128 0 3.243-1.115 3.243-2.432 0-.405-.101-.912-.203-1.115h1.824c2.738 0 3.346-1.317 3.346-2.331zm-12.771 4.865h-.811v-2.838h.811c1.013 0 1.419.608 1.419 1.318 0 .71-.405 1.52-1.419 1.52zm6.588-5.27v2.027c-.405-.203-.912-.405-1.318-.709-.608-.203-1.115-.608-1.115-1.216 0-.304.203-.912 1.216-.912h2.027l-.81.81zm1.723-4.156h.811c1.318 0 1.318.811 1.318 1.014 0 .304-.203 1.013-1.318 1.013h-.811V9.52zm-.101 5.777v-2.331h1.013c1.216 0 1.419.608 1.419 1.115.101.709-.304 1.216-1.419 1.216h-1.013z"/><path d="M26 26c3.3 0 6-2.7 6-6V6c0-3.3-2.7-6-6-6H12C8.7 0 6 2.7 6 6h14c3.3 0 6 2.7 6 6v14z"/></g></svg>

<?xml version="1.0" encoding="UTF-8"?>
<svg width="36px" height="36px" viewBox="0 0 36 36" version="1.1" xmlns="http://www.w3.org/2000/svg" xmlns:xlink="http://www.w3.org/1999/xlink">
    <!-- Generator: Sketch 49.2 (51160) - http://www.bohemiancoding.com/sketch -->
    <title>icon_bank-psb_xl_white</title>
    <desc>Created with Sketch.</desc>
    <defs></defs>
    <g id="page" stroke="none" stroke-width="1" fill="none" fill-rule="evenodd">
        <g id="промсвязьбанк" transform="translate(-102.000000, -6.000000)">
            <g id="icon_bank-psb_xl_white" transform="translate(102.000000, 6.000000)">
                <rect id="Rectangle" x="0" y="0" width="36" height="36"></rect>
                <g id="Group" transform="translate(2.000000, 2.000000)" fill="#FFFFFF" fill-rule="nonzero">
                    <path d="M0,26 C0,29.3 2.7,32 6,32 L20,32 C23.3,32 26,29.3 26,26 L12,26 C8.7,26 6,23.3 6,20 L6,6 C2.7,6 0,8.7 0,12 L0,26 Z" id="Shape" opacity="0.3"></path>
                    <path d="M24.203,14.081 C23.985091,13.0847112 23.1821168,12.3217472 22.176,12.155 C22.784,11.952 23.494,11.446 23.494,10.128 C23.494,8.709 22.379,8 20.656,8 L17.818,8 L17.818,11.446 L16.095,11.446 C13.865,11.446 13.358,12.966 13.358,13.777 C13.358,14.993 14.067,15.5 15.284,16.108 C16.095,16.412 17.007,16.817 17.007,17.527 C17.007,17.932 16.602,18.54 15.689,18.54 L14.27,18.54 C14.473,18.135 14.574,17.628 14.574,17.222 C14.574,16.614 14.371,14.486 11.331,14.486 L9,14.486 L9,23 L10.723,23 L10.723,19.25 L11.432,19.959 L15.993,19.959 C18.121,19.959 19.236,18.844 19.236,17.527 C19.236,17.122 19.135,16.615 19.033,16.412 L20.857,16.412 C23.595,16.412 24.203,15.095 24.203,14.081 Z M11.432,18.946 L10.621,18.946 L10.621,16.108 L11.432,16.108 C12.445,16.108 12.851,16.716 12.851,17.426 C12.851,18.136 12.446,18.946 11.432,18.946 Z M18.02,13.676 L18.02,15.703 C17.615,15.5 17.108,15.298 16.702,14.994 C16.094,14.791 15.587,14.386 15.587,13.778 C15.587,13.474 15.79,12.866 16.803,12.866 L18.83,12.866 L18.02,13.676 Z M19.743,9.52 L20.554,9.52 C21.872,9.52 21.872,10.331 21.872,10.534 C21.872,10.838 21.669,11.547 20.554,11.547 L19.743,11.547 L19.743,9.52 Z M19.642,15.297 L19.642,12.966 L20.655,12.966 C21.871,12.966 22.074,13.574 22.074,14.081 C22.175,14.79 21.77,15.297 20.655,15.297 L19.642,15.297 Z" id="Shape"></path>
                    <path d="M26,26 C29.3,26 32,23.3 32,20 L32,6 C32,2.7 29.3,0 26,0 L12,0 C8.7,0 6,2.7 6,6 L20,6 C23.3,6 26,8.7 26,12 L26,26 Z" id="Shape"></path>
                </g>
            </g>
        </g>
    </g>
</svg>
